img/logofooter.svg

<svg fill="none" height="32" viewBox="0 0 32 32" width="32" xmlns="http://www.w3.org/2000/svg"><circle cx="16" cy="16" fill="#fff" r="16"/><path d="m13.2642 6.26074v3.21486s-2.4711.19051-2.4314 2.4584c-.0306.5938.1646 1.1773.5462 1.6332.3817.456.9216.7508 1.5115.8252h5.9849s5.3147.0783 5.2378 6.0519c-.0649 4.9382-5.6136 5.2947-5.6136 5.2947v-3.2149s2.3535-.1919 2.4314-2.2689c.0362-.3382-.0001-.6802-.1065-1.0033s-.2805-.6198-.5105-.8703c-.2301-.2505-.5109-.4491-.8238-.5826-.3128-.1334-.6505-.1987-.9906-.1913h-5.7964s-5.09616-.4663-5.05055-5.6737c.04491-5.10839 4.68705-5.66308 5.61155-5.67326z" fill="#ff774b"/></svg>

<svg width="32" height="32" viewBox="0 0 32 32" fill="none" xmlns="http://www.w3.org/2000/svg">
<circle cx="16" cy="16" r="16" fill="white"/>
<path d="M13.2642 6.26074V9.4756C13.2642 9.4756 10.7931 9.66611 10.8328 11.934C10.8022 12.5278 10.9974 13.1113 11.379 13.5672C11.7607 14.0232 12.3006 14.318 12.8905 14.3924H18.8754C18.8754 14.3924 24.1901 14.4707 24.1132 20.4443C24.0483 25.3825 18.4996 25.739 18.4996 25.739V22.5241C18.4996 22.5241 20.8531 22.3322 20.931 20.2552C20.9672 19.917 20.9309 19.575 20.8245 19.2519C20.7181 18.9288 20.544 18.6321 20.314 18.3816C20.0839 18.1311 19.8031 17.9325 19.4902 17.799C19.1774 17.6656 18.8397 17.6003 18.4996 17.6077H12.7032C12.7032 17.6077 7.60704 17.1414 7.65265 11.934C7.69756 6.82561 12.3397 6.27092 13.2642 6.26074Z" fill="#FF774B"/>
</svg>
